X: 34072
T: Reel De Montebello
R: reel
M: 4/4
K: Bminor
|:FBcd fdcB|GBcd fdcB|ABcd ecAc|fecB A2FE|
FBcd fdcB|GBcd BdcB|ABcd ecAE|FEFA B4:|
|:bfdf afdB|ABcd edce|aeeg eeae|fefg f2df|
bfdf afdB|ABcd edce|afea fece|1 fedc B3z:|2 fedc B3z||

